images/icons/apple-podcasts.svg

<svg width="24" height="24" viewBox="0 0 24 24" fill="none" xmlns="http://www.w3.org/2000/svg">
<g clip-path="url(#clip0_1432_8541)">
<path fill-rule="evenodd" clip-rule="evenodd" d="M23.528 20.8C23.296 21.392 22.76 22.224 21.992 22.816C21.552 23.152 21.024 23.48 20.304 23.696C19.536 23.928 18.584 24 17.4 24H6.6C5.416 24 4.472 23.92 3.696 23.696C2.976 23.48 2.448 23.16 2.008 22.816C1.248 22.232 0.704 21.392 0.472 20.8C0.00799999 19.608 0 18.256 0 17.4V6.6C0 5.744 0.00799999 4.392 0.472 3.2C0.704 2.608 1.24 1.776 2.008 1.184C2.448 0.848 2.976 0.52 3.696 0.304C4.472 0.08 5.416 0 6.6 0H17.4C18.584 0 19.528 0.08 20.304 0.304C21.024 0.52 21.552 0.84 21.992 1.184C22.752 1.768 23.296 2.608 23.528 3.2C24 4.392 24 5.752 24 6.6V17.4C24 18.256 23.992 19.608 23.528 20.8Z" fill="url(#paint0_linear_1432_8541)"/>
<path d="M14.056 14.488C14.024 14.2 13.928 13.992 13.736 13.8C13.376 13.424 12.744 13.176 12 13.176C11.256 13.176 10.624 13.416 10.264 13.8C10.08 14 9.97604 14.2 9.94404 14.488C9.88004 15.048 9.92004 15.528 9.98404 16.304C10.048 17.04 10.168 18.024 10.32 19.016C10.432 19.728 10.52 20.112 10.6 20.384C10.736 20.832 11.224 21.216 12 21.216C12.776 21.216 13.272 20.824 13.4 20.384C13.48 20.112 13.568 19.728 13.68 19.016C13.832 18.016 13.952 17.04 14.016 16.304C14.088 15.528 14.12 15.048 14.056 14.488Z" fill="white"/>
<path d="M13.968 10.408C13.968 11.496 13.088 12.376 12 12.376C10.912 12.376 10.032 11.496 10.032 10.408C10.032 9.32 10.912 8.44 12 8.44C13.088 8.44 13.968 9.328 13.968 10.408Z" fill="white"/>
<path d="M11.976 2.65599C7.38404 2.67199 3.62404 6.39999 3.56004 10.992C3.51204 14.712 5.88804 17.896 9.20804 19.064C9.28804 19.096 9.36804 19.024 9.36004 18.944C9.32004 18.656 9.27204 18.368 9.24004 18.08C9.22404 17.976 9.16004 17.896 9.07204 17.848C6.44804 16.704 4.61604 14.072 4.64804 11.024C4.68804 7.02399 7.95204 3.76799 11.944 3.73599C16.032 3.70399 19.368 7.01599 19.368 11.096C19.368 14.112 17.544 16.704 14.944 17.848C14.848 17.888 14.784 17.976 14.776 18.08C14.736 18.368 14.696 18.656 14.656 18.944C14.64 19.032 14.728 19.096 14.808 19.064C18.096 17.912 20.456 14.776 20.456 11.096C20.44 6.43999 16.64 2.64799 11.976 2.65599Z" fill="white"/>
<path d="M11.784 5.45598C8.79199 5.56798 6.39199 8.03997 6.35199 11.032C6.32799 13 7.31199 14.744 8.82399 15.776C8.89599 15.824 8.99999 15.768 8.99999 15.68C8.97599 15.336 8.97599 15.032 8.99199 14.712C8.99999 14.608 8.95999 14.512 8.87999 14.44C7.95999 13.576 7.39999 12.344 7.43199 10.984C7.49599 8.58398 9.42399 6.63198 11.824 6.53598C14.432 6.43198 16.576 8.52798 16.576 11.104C16.576 12.416 16.016 13.6 15.128 14.44C15.056 14.512 15.016 14.608 15.016 14.712C15.032 15.024 15.024 15.328 15.008 15.672C15 15.76 15.104 15.824 15.184 15.768C16.672 14.752 17.656 13.032 17.656 11.096C17.664 7.91198 15 5.32798 11.784 5.45598Z" fill="white"/>
</g>
<defs>
<linearGradient id="paint0_linear_1432_8541" x1="12" y1="0" x2="12" y2="24" gradientUnits="userSpaceOnUse">
<stop stop-color="#F452FF"/>
<stop offset="1" stop-color="#832BC1"/>
</linearGradient>
<clipPath id="clip0_1432_8541">
<rect width="24" height="24" fill="white"/>
</clipPath>
</defs>
</svg>

<svg fill="none" height="24" viewBox="0 0 24 24" width="24" xmlns="http://www.w3.org/2000/svg" xmlns:xlink="http://www.w3.org/1999/xlink"><linearGradient id="a" gradientUnits="userSpaceOnUse" x1="12" x2="12" y1="0" y2="24"><stop offset="0" stop-color="#f452ff"/><stop offset="1" stop-color="#832bc1"/></linearGradient><clipPath id="b"><path d="m0 0h24v24h-24z"/></clipPath><g clip-path="url(#b)"><path clip-rule="evenodd" d="m23.528 20.8c-.232.592-.768 1.424-1.536 2.016-.44.336-.968.664-1.688.88-.768.232-1.72.304-2.904.304h-10.8c-1.184 0-2.128-.08-2.904-.304-.72-.216-1.248-.536-1.688-.88-.76-.584-1.304-1.424-1.536-2.016-.46400001-1.192-.472-2.544-.472-3.4v-10.8c0-.856.00799999-2.208.472-3.4.232-.592.768-1.424 1.536-2.016.44-.336.968-.664 1.688-.88.776-.224 1.72-.304 2.904-.304h10.8c1.184 0 2.128.08 2.904.304.72.216 1.248.536 1.688.88.76.584 1.304 1.424 1.536 2.016.472 1.192.472 2.552.472 3.4v10.8c0 .856-.008 2.208-.472 3.4z" fill="url(#a)" fill-rule="evenodd"/><g fill="#fff"><path d="m14.056 14.488c-.032-.288-.128-.496-.32-.688-.36-.376-.992-.624-1.736-.624s-1.376.24-1.736.624c-.184.2-.28796.4-.31996.688-.064.56-.024 1.04.04 1.816.06396.736.18396 1.72.33596 2.712.112.712.2 1.096.28 1.368.136.448.624.832 1.4.832s1.272-.392 1.4-.832c.08-.272.168-.656.28-1.368.152-1 .272-1.976.336-2.712.072-.776.104-1.256.04-1.816z"/><path d="m13.968 10.408c0 1.088-.88 1.968-1.968 1.968s-1.968-.88-1.968-1.968.88-1.968 1.968-1.968 1.968.888 1.968 1.968z"/><path d="m11.976 2.65599c-4.59196.016-8.35196 3.744-8.41596 8.33601-.048 3.72 2.328 6.904 5.648 8.072.08.032.16-.04.152-.12-.04-.288-.088-.576-.12-.864-.016-.104-.08-.184-.168-.232-2.624-1.144-4.456-3.776-4.424-6.824.04-4.00001 3.304-7.25601 7.29596-7.28801 4.088-.032 7.424 3.28 7.424 7.36001 0 3.016-1.824 5.608-4.424 6.752-.096.04-.16.128-.168.232-.04.288-.08.576-.12.864-.016.088.072.152.152.12 3.288-1.152 5.648-4.288 5.648-7.968-.016-4.65601-3.816-8.44801-8.48-8.44001z"/><path d="m11.784 5.45598c-2.99201.112-5.39201 2.58399-5.43201 5.57602-.024 1.968.96 3.712 2.472 4.744.072.048.176-.008.176-.096-.024-.344-.024-.648-.008-.968.008-.104-.032-.2-.112-.272-.92-.864-1.48-2.096-1.448-3.456.064-2.40002 1.992-4.35202 4.39201-4.44802 2.608-.104 4.752 1.992 4.752 4.56802 0 1.312-.56 2.496-1.448 3.336-.072.072-.112.168-.112.272.016.312.008.616-.008.96-.008.088.096.152.176.096 1.488-1.016 2.472-2.736 2.472-4.672.008-3.18402-2.656-5.76802-5.872-5.64002z"/></g></g></svg>
